status/32/image-missing.svg

<?xml version="1.0" encoding="UTF-8" standalone="no"?>
<!-- Created with Inkscape (http://www.inkscape.org/) -->

<svg
   xmlns:svg="http://www.w3.org/2000/svg"
   xmlns="http://www.w3.org/2000/svg"
   xmlns:xlink="http://www.w3.org/1999/xlink"
   version="1.0"
   width="32"
   height="32"
   id="svg2526">
  <defs
     id="defs2528">
    <linearGradient
       id="linearGradient3610-302">
      <stop
         id="stop3796"
         style="stop-color:#333;stop-opacity:1"
         offset="0" />
      <stop
         id="stop3798"
         style="stop-color:#292929;stop-opacity:1"
         offset="1" />
    </linearGradient>
    <linearGradient
       x1="-24.032034"
       y1="-13.090545"
       x2="-24.097931"
       y2="-40.163883"
       id="linearGradient3492"
       xlink:href="#linearGradient3610-302"
       gradientUnits="userSpaceOnUse"
       gradientTransform="matrix(0.7714287,0,0,0.7777779,2.523988,4.0096)" />
    <linearGradient
       id="linearGradient4157-401-351">
      <stop
         id="stop3790"
         style="stop-color:#262626;stop-opacity:1"
         offset="0" />
      <stop
         id="stop3792"
         style="stop-color:#828282;stop-opacity:1"
         offset="1" />
    </linearGradient>
    <linearGradient
       x1="28.938274"
       y1="17.33289"
       x2="105.36545"
       y2="92.823723"
       id="linearGradient3490"
       xlink:href="#linearGradient4157-401-351"
       gradientUnits="userSpaceOnUse"
       gradientTransform="matrix(0.339812,0,0,0.2662347,-39.08966,-32.284516)" />
    <linearGradient
       id="linearGradient259-942">
      <stop
         id="stop3802"
         style="stop-color:white;stop-opacity:1"
         offset="0" />
      <stop
         id="stop3804"
         style="stop-color:#e0e0e0;stop-opacity:1"
         offset="1" />
    </linearGradient>
    <linearGradient
       x1="108.26451"
       y1="110.28094"
       x2="25.817675"
       y2="14.029031"
       id="linearGradient3495"
       xlink:href="#linearGradient259-942"
       gradientUnits="userSpaceOnUse"
       gradientTransform="matrix(0.3490161,0,0,0.2439224,-39.656461,-32.683781)" />
    <radialGradient
       cx="605.71429"
       cy="486.64789"
       r="117.14286"
       fx="605.71429"
       fy="486.64789"
       id="radialGradient3505"
       xlink:href="#linearGradient5060"
       gradientUnits="userSpaceOnUse"
       gradientTransform="matrix(0.02891661,0,0,0.01235294,26.973101,38.470848)" />
    <linearGradient
       id="linearGradient5060">
      <stop
         id="stop5062"
         style="stop-color:black;stop-opacity:1"
         offset="0" />
      <stop
         id="stop5064"
         style="stop-color:black;stop-opacity:0"
         offset="1" />
    </linearGradient>
    <radialGradient
       cx="605.71429"
       cy="486.64789"
       r="117.14286"
       fx="605.71429"
       fy="486.64789"
       id="radialGradient3503"
       xlink:href="#linearGradient5060"
       gradientUnits="userSpaceOnUse"
       gradientTransform="matrix(-0.0289166,0,0,0.01235294,21.026894,38.470848)" />
    <linearGradient
       id="linearGradient5048">
      <stop
         id="stop5050"
         style="stop-color:black;stop-opacity:0"
         offset="0" />
      <stop
         id="stop5056"
         style="stop-color:black;stop-opacity:1"
         offset="0.5" />
      <stop
         id="stop5052"
         style="stop-color:black;stop-opacity:0"
         offset="1" />
    </linearGradient>
    <linearGradient
       x1="302.85715"
       y1="366.64789"
       x2="302.85715"
       y2="609.50507"
       id="linearGradient3501"
       xlink:href="#linearGradient5048"
       gradientUnits="userSpaceOnUse"
       gradientTransform="matrix(0.08449704,0,0,0.01235294,-6.5396456,38.470822)" />
    <linearGradient
       id="linearGradient3781">
      <stop
         id="stop3783"
         style="stop-color:white;stop-opacity:1"
         offset="0" />
      <stop
         id="stop3785"
         style="stop-color:white;stop-opacity:0"
         offset="1" />
    </linearGradient>
    <linearGradient
       x1="7.8322024"
       y1="10.935848"
       x2="18.67845"
       y2="10.935848"
       id="linearGradient2476"
       xlink:href="#linearGradient3781"
       gradientUnits="userSpaceOnUse"
       gradientTransform="matrix(0.6660814,0,0,0.7658657,-0.570797,-0.5707967)" />
    <linearGradient
       id="linearGradient4873">
      <stop
         id="stop4875"
         style="stop-color:white;stop-opacity:1"
         offset="0" />
      <stop
         id="stop4877"
         style="stop-color:white;stop-opacity:0"
         offset="1" />
    </linearGradient>
    <linearGradient
       x1="63.397362"
       y1="-12.489107"
       x2="63.397362"
       y2="5.4675598"
       id="linearGradient2479"
       xlink:href="#linearGradient4873"
       gradientUnits="userSpaceOnUse"
       gradientTransform="matrix(0.7432394,0,0,0.7432224,-38.229789,10.609333)" />
    <linearGradient
       id="linearGradient2490">
      <stop
         id="stop2492"
         style="stop-color:#791235;stop-opacity:1"
         offset="0" />
      <stop
         id="stop2494"
         style="stop-color:#dd3b27;stop-opacity:1"
         offset="1" />
    </linearGradient>
    <linearGradient
       x1="18.379412"
       y1="44.980297"
       x2="18.379412"
       y2="3.0816143"
       id="linearGradient2484"
       xlink:href="#linearGradient2490"
       gradientUnits="userSpaceOnUse"
       gradientTransform="matrix(0.3685738,0,0,0.3685738,-0.84577,-0.8457701)" />
    <linearGradient
       id="linearGradient3242">
      <stop
         id="stop3244"
         style="stop-color:#f8b17e;stop-opacity:1"
         offset="0" />
      <stop
         id="stop3246"
         style="stop-color:#e35d4f;stop-opacity:1"
         offset="0.26238" />
      <stop
         id="stop3248"
         style="stop-color:#c6262e;stop-opacity:1"
         offset="0.66093999" />
      <stop
         id="stop3250"
         style="stop-color:#690b54;stop-opacity:1"
         offset="1" />
    </linearGradient>
    <radialGradient
       cx="23.895569"
       cy="3.9900031"
       r="20.397499"
       fx="23.895569"
       fy="3.9900031"
       id="radialGradient2482"
       xlink:href="#linearGradient3242"
       gradientUnits="userSpaceOnUse"
       gradientTransform="matrix(0,0.8796593,-1.1611346,0,12.632931,-21.08413)" />
  </defs>
  <g
     id="layer1">
    <g
       id="g2576">
      <g
         transform="matrix(0.6666592,0,0,1.3333333,1.792e-4,-30.333332)"
         id="g3257"
         style="opacity:0.4">
        <rect
           width="40.799999"
           height="2.9999998"
           x="3.5999999"
           y="43"
           id="rect2879"
           style="fill:url(#linearGradient3501);fill-opacity:1;fill-rule:nonzero;stroke:none;stroke-width:1;marker:none;visibility:visible;display:inline;overflow:visible" />
        <path
           d="m 3.6,43.00013 c 0,0 0,2.999835 0,2.999835 C 2.1108662,46.005612 0,45.327854 0,44.499854 0,43.671856 1.6617608,43.000131 3.6,43.00013 z"
           id="path2881"
           style="fill:url(#radialGradient3503);fill-opacity:1;fill-rule:nonzero;stroke:none;stroke-width:1;marker:none;visibility:visible;display:inline;overflow:visible" />
        <path
           d="m 44.4,43.00013 c 0,0 0,2.999835 0,2.999835 1.489133,0.0056 3.6,-0.672111 3.6,-1.500111 0,-0.827998 -1.661761,-1.499723 -3.6,-1.499724 z"
           id="path2883"
           style="fill:url(#radialGradient3505);fill-opacity:1;fill-rule:nonzero;stroke:none;stroke-width:1;marker:none;visibility:visible;display:inline;overflow:visible" />
      </g>
      <rect
         width="30.976278"
         height="24.94589"
         x="-31.471941"
         y="-29.500877"
         transform="matrix(-0.9999985,0.00174715,-9.5284192e-4,-0.9999995,0,0)"
         id="rect3580"
         style="fill:url(#linearGradient3495);fill-opacity:1;stroke:#c1c1c1;stroke-width:0.99999976;stroke-linecap:round;stroke-linejoin:miter;stroke-miterlimit:4;stroke-opacity:0.96862745;stroke-dasharray:none" />
      <rect
         width="26.949747"
         height="20.897734"
         rx="0"
         ry="0"
         x="-29.516172"
         y="-27.509823"
         transform="matrix(-0.9999928,0.00379695,0.00241411,-0.9999971,0,0)"
         id="rect3582"
         style="fill:url(#linearGradient3490);fill-opacity:1;stroke:url(#linearGradient3492);stroke-width:1.00000954;stroke-linecap:round;stroke-linejoin:miter;stroke-miterlimit:4;stroke-opacity:1;stroke-dasharray:none" />
    </g>
    <g
       transform="translate(8.0000028,9.4999994)"
       id="g2521">
      <path
         d="m 8.0000011,0.50182787 c -4.1372321,0 -7.4981741,3.36093913 -7.4981741,7.49817173 0,4.1372334 3.360942,7.4981754 7.4981741,7.4981724 4.1372309,0 7.4981759,-3.360939 7.4981719,-7.4981724 0,-4.1372326 -3.360941,-7.49817173 -7.4981719,-7.49817173 z m 0,2.40724743 c 2.8127609,0 5.0909249,2.278165 5.0909249,5.0909243 0,1.180493 -0.409021,2.2580884 -1.082687,3.1213594 L 5.558201,3.5310432 C 6.28288,3.1345282 7.115286,2.9090753 8.0000011,2.9090753 z M 3.922653,4.9592664 10.349659,12.515029 c -0.7029369,0.366219 -1.5018289,0.575897 -2.3496579,0.575897 -2.8127601,0 -5.0909251,-2.278166 -5.0909251,-5.0909264 0,-1.1426829 0.378507,-2.1914086 1.013577,-3.0407332 z"
         id="path2555"
         style="fill:url(#radialGradient2482);fill-opacity:1;stroke:url(#linearGradient2484);stroke-width:1.00365424;stroke-linecap:round;stroke-linejoin:round;stroke-miterlimit:4;stroke-opacity:1;stroke-dasharray:none;stroke-dashoffset:0" />
      <path
         d="M 14.500001,7.9997709 C 14.500001,11.589737 11.589636,14.5 8.0000818,14.5 4.4101984,14.5 1.5000001,11.589705 1.5000001,7.9997709 c 0,-3.5898006 2.9101983,-6.4997695 6.5000817,-6.4997695 3.5895542,0 6.4999192,2.9099689 6.4999192,6.4997695 l 0,0 z"
         id="path2463"
         style="opacity:0.4;fill:none;stroke:url(#linearGradient2479);stroke-width:1;stroke-miterlimit:4;stroke-opacity:1;stroke-dasharray:none" />
      <path
         d="M 4.8517868,4.2102172 11.235855,11.701806"
         id="path3270"
         style="opacity:0.4;fill:none;stroke:url(#linearGradient2476);stroke-width:1px;stroke-linecap:round;stroke-linejoin:miter;stroke-opacity:1" />
    </g>
  </g>
</svg>

<?xml version="1.0" encoding="UTF-8" standalone="no"?>
<!-- Created with Inkscape (http://www.inkscape.org/) -->
<svg
   xmlns:svg="http://www.w3.org/2000/svg"
   xmlns="http://www.w3.org/2000/svg"
   xmlns:xlink="http://www.w3.org/1999/xlink"
   version="1.0"
   width="32"
   height="32"
   id="svg2526">
  <defs
     id="defs2528">
    <linearGradient
       id="linearGradient3610-302">
      <stop
         id="stop3796"
         style="stop-color:#333333;stop-opacity:1"
         offset="0" />
      <stop
         id="stop3798"
         style="stop-color:#292929;stop-opacity:1"
         offset="1" />
    </linearGradient>
    <linearGradient
       x1="-24.032034"
       y1="-13.090545"
       x2="-24.097931"
       y2="-40.163883"
       id="linearGradient3492"
       xlink:href="#linearGradient3610-302"
       gradientUnits="userSpaceOnUse"
       gradientTransform="matrix(0.7714287,0,0,0.7777779,2.523988,4.0096)" />
    <linearGradient
       id="linearGradient4157-401-351">
      <stop
         id="stop3790"
         style="stop-color:#262626;stop-opacity:1"
         offset="0" />
      <stop
         id="stop3792"
         style="stop-color:#828282;stop-opacity:1"
         offset="1" />
    </linearGradient>
    <linearGradient
       x1="28.938274"
       y1="17.33289"
       x2="105.36545"
       y2="92.823723"
       id="linearGradient3490"
       xlink:href="#linearGradient4157-401-351"
       gradientUnits="userSpaceOnUse"
       gradientTransform="matrix(0.339812,0,0,0.2662347,-39.08966,-32.284516)" />
    <linearGradient
       id="linearGradient259-942">
      <stop
         id="stop3802"
         style="stop-color:#ffffff;stop-opacity:1"
         offset="0" />
      <stop
         id="stop3804"
         style="stop-color:#e0e0e0;stop-opacity:1"
         offset="1" />
    </linearGradient>
    <linearGradient
       x1="108.26451"
       y1="110.28094"
       x2="25.817675"
       y2="14.029031"
       id="linearGradient3495"
       xlink:href="#linearGradient259-942"
       gradientUnits="userSpaceOnUse"
       gradientTransform="matrix(0.3490161,0,0,0.2439224,-39.656461,-32.683781)" />
    <radialGradient
       cx="605.71429"
       cy="486.64789"
       r="117.14286"
       fx="605.71429"
       fy="486.64789"
       id="radialGradient3505"
       xlink:href="#linearGradient5060"
       gradientUnits="userSpaceOnUse"
       gradientTransform="matrix(2.891661e-2,0,0,1.2352939e-2,26.973101,38.470848)" />
    <linearGradient
       id="linearGradient5060">
      <stop
         id="stop5062"
         style="stop-color:#000000;stop-opacity:1"
         offset="0" />
      <stop
         id="stop5064"
         style="stop-color:#000000;stop-opacity:0"
         offset="1" />
    </linearGradient>
    <radialGradient
       cx="605.71429"
       cy="486.64789"
       r="117.14286"
       fx="605.71429"
       fy="486.64789"
       id="radialGradient3503"
       xlink:href="#linearGradient5060"
       gradientUnits="userSpaceOnUse"
       gradientTransform="matrix(-2.8916604e-2,0,0,1.2352939e-2,21.026894,38.470848)" />
    <linearGradient
       id="linearGradient5048">
      <stop
         id="stop5050"
         style="stop-color:#000000;stop-opacity:0"
         offset="0" />
      <stop
         id="stop5056"
         style="stop-color:#000000;stop-opacity:1"
         offset="0.5" />
      <stop
         id="stop5052"
         style="stop-color:#000000;stop-opacity:0"
         offset="1" />
    </linearGradient>
    <linearGradient
       x1="302.85715"
       y1="366.64789"
       x2="302.85715"
       y2="609.50507"
       id="linearGradient3501"
       xlink:href="#linearGradient5048"
       gradientUnits="userSpaceOnUse"
       gradientTransform="matrix(8.4497041e-2,0,0,1.2352939e-2,-6.5396456,38.470822)" />
    <linearGradient
       id="linearGradient3781">
      <stop
         id="stop3783"
         style="stop-color:#ffffff;stop-opacity:1"
         offset="0" />
      <stop
         id="stop3785"
         style="stop-color:#ffffff;stop-opacity:0"
         offset="1" />
    </linearGradient>
    <linearGradient
       x1="7.8322024"
       y1="10.935848"
       x2="18.67845"
       y2="10.935848"
       id="linearGradient2476"
       xlink:href="#linearGradient3781"
       gradientUnits="userSpaceOnUse"
       gradientTransform="matrix(0.6660814,0,0,0.7658657,-0.570797,-0.5707967)" />
    <linearGradient
       id="linearGradient4873">
      <stop
         id="stop4875"
         style="stop-color:#ffffff;stop-opacity:1"
         offset="0" />
      <stop
         id="stop4877"
         style="stop-color:#ffffff;stop-opacity:0"
         offset="1" />
    </linearGradient>
    <linearGradient
       x1="63.397362"
       y1="-12.489107"
       x2="63.397362"
       y2="5.4675598"
       id="linearGradient2479"
       xlink:href="#linearGradient4873"
       gradientUnits="userSpaceOnUse"
       gradientTransform="matrix(0.7432394,0,0,0.7432224,-38.229789,10.609333)" />
    <linearGradient
       id="linearGradient2490">
      <stop
         id="stop2492"
         style="stop-color:#791235;stop-opacity:1"
         offset="0" />
      <stop
         id="stop2494"
         style="stop-color:#dd3b27;stop-opacity:1"
         offset="1" />
    </linearGradient>
    <linearGradient
       x1="18.379412"
       y1="44.980297"
       x2="18.379412"
       y2="3.0816143"
       id="linearGradient2484"
       xlink:href="#linearGradient2490"
       gradientUnits="userSpaceOnUse"
       gradientTransform="matrix(0.3685738,0,0,0.3685738,-0.84577,-0.8457701)" />
    <linearGradient
       id="linearGradient3242">
      <stop
         id="stop3244"
         style="stop-color:#f8b17e;stop-opacity:1"
         offset="0" />
      <stop
         id="stop3246"
         style="stop-color:#e35d4f;stop-opacity:1"
         offset="0.26238" />
      <stop
         id="stop3248"
         style="stop-color:#c6262e;stop-opacity:1"
         offset="0.66093999" />
      <stop
         id="stop3250"
         style="stop-color:#690b54;stop-opacity:1"
         offset="1" />
    </linearGradient>
    <radialGradient
       cx="23.895569"
       cy="3.9900031"
       r="20.397499"
       fx="23.895569"
       fy="3.9900031"
       id="radialGradient2482"
       xlink:href="#linearGradient3242"
       gradientUnits="userSpaceOnUse"
       gradientTransform="matrix(0,0.8796593,-1.1611346,0,12.632931,-21.08413)" />
  </defs>
  <g
     id="layer1">
    <g
       id="g2576">
      <g
         transform="matrix(0.6666592,0,0,1.3333333,1.792e-4,-30.333332)"
         id="g3257"
         style="opacity:0.4">
        <rect
           width="40.799999"
           height="2.9999998"
           x="3.5999999"
           y="43"
           id="rect2879"
           style="opacity:1;fill:url(#linearGradient3501);fill-opacity:1;fill-rule:nonzero;stroke:none;stroke-width:1;stroke-linecap:round;stroke-linejoin:miter;marker:none;marker-start:none;marker-mid:none;marker-end:none;stroke-miterlimit:4;stroke-dasharray:none;stroke-dashoffset:0;stroke-opacity:1;visibility:visible;display:inline;overflow:visible" />
        <path
           d="M 3.6,43.00013 C 3.6,43.00013 3.6,45.999965 3.6,45.999965 C 2.1108662,46.005612 7.1054274e-15,45.327854 7.1054274e-15,44.499854 C 7.1054274e-15,43.671856 1.6617608,43.000131 3.6,43.00013 z"
           id="path2881"
           style="opacity:1;fill:url(#radialGradient3503);fill-opacity:1;fill-rule:nonzero;stroke:none;stroke-width:1;stroke-linecap:round;stroke-linejoin:miter;marker:none;marker-start:none;marker-mid:none;marker-end:none;stroke-miterlimit:4;stroke-dasharray:none;stroke-dashoffset:0;stroke-opacity:1;visibility:visible;display:inline;overflow:visible" />
        <path
           d="M 44.4,43.00013 C 44.4,43.00013 44.4,45.999965 44.4,45.999965 C 45.889133,46.005612 48,45.327854 48,44.499854 C 48,43.671856 46.338239,43.000131 44.4,43.00013 z"
           id="path2883"
           style="opacity:1;fill:url(#radialGradient3505);fill-opacity:1;fill-rule:nonzero;stroke:none;stroke-width:1;stroke-linecap:round;stroke-linejoin:miter;marker:none;marker-start:none;marker-mid:none;marker-end:none;stroke-miterlimit:4;stroke-dasharray:none;stroke-dashoffset:0;stroke-opacity:1;visibility:visible;display:inline;overflow:visible" />
      </g>
      <rect
         width="30.976278"
         height="24.94589"
         x="-31.471941"
         y="-29.500877"
         transform="matrix(-0.9999985,1.7471477e-3,-9.5284192e-4,-0.9999995,0,0)"
         id="rect3580"
         style="fill:url(#linearGradient3495);fill-opacity:1;stroke:#c1c1c1;stroke-width:0.99999976;stroke-linecap:round;stroke-linejoin:miter;stroke-miterlimit:4;stroke-dasharray:none;stroke-opacity:0.96862745" />
      <rect
         width="26.949747"
         height="20.897734"
         rx="0"
         ry="0"
         x="-29.516172"
         y="-27.509823"
         transform="matrix(-0.9999928,3.7969548e-3,2.4141123e-3,-0.9999971,0,0)"
         id="rect3582"
         style="fill:url(#linearGradient3490);fill-opacity:1;stroke:url(#linearGradient3492);stroke-width:1.00000954;stroke-linecap:round;stroke-linejoin:miter;stroke-miterlimit:4;stroke-dasharray:none;stroke-opacity:1" />
    </g>
    <g
       transform="translate(8.0000028,9.4999994)"
       id="g2521">
      <path
         d="M 8.0000011,0.50182787 C 3.862769,0.50182787 0.501827,3.862767 0.501827,7.9999996 C 0.501827,12.137233 3.862769,15.498175 8.0000011,15.498172 C 12.137232,15.498172 15.498177,12.137233 15.498173,7.9999996 C 15.498173,3.862767 12.137232,0.50182787 8.0000011,0.50182787 z M 8.0000011,2.9090753 C 10.812762,2.9090753 13.090926,5.1872403 13.090926,7.9999996 C 13.090926,9.1804926 12.681905,10.258088 12.008239,11.121359 L 5.558201,3.5310432 C 6.28288,3.1345282 7.115286,2.9090753 8.0000011,2.9090753 z M 3.922653,4.9592664 L 10.349659,12.515029 C 9.6467221,12.881248 8.8478301,13.090926 8.0000011,13.090926 C 5.187241,13.090926 2.909076,10.81276 2.909076,7.9999996 C 2.909076,6.8573167 3.287583,5.808591 3.922653,4.9592664 z"
         id="path2555"
         style="fill:url(#radialGradient2482);fill-opacity:1;stroke:url(#linearGradient2484);stroke-width:1.00365424;stroke-linecap:round;stroke-linejoin:round;stroke-miterlimit:4;stroke-dasharray:none;stroke-dashoffset:0;stroke-opacity:1" />
      <path
         d="M 14.500001,7.9997709 C 14.500001,11.589737 11.589636,14.5 8.0000818,14.5 C 4.4101984,14.5 1.5000001,11.589705 1.5000001,7.9997709 C 1.5000001,4.4099703 4.4101984,1.5000014 8.0000818,1.5000014 C 11.589636,1.5000014 14.500001,4.4099703 14.500001,7.9997709 L 14.500001,7.9997709 z"
         id="path2463"
         style="opacity:0.4;fill:none;fill-opacity:1;fill-rule:nonzero;stroke:url(#linearGradient2479);stroke-width:1;stroke-miterlimit:4;stroke-dasharray:none;stroke-opacity:1" />
      <path
         d="M 4.8517868,4.2102172 L 11.235855,11.701806"
         id="path3270"
         style="opacity:0.4;fill:none;fill-rule:evenodd;stroke:url(#linearGradient2476);stroke-width:1px;stroke-linecap:round;stroke-linejoin:miter;stroke-opacity:1" />
    </g>
  </g>
</svg>
